!!!COM: Kuresa, Sauni Iiga
!!!CDT: 1900-1978
!!!OTL: National Anthem, Western Somoa - The Banner of Freedom
!!!ENC: Davis, Matthew J.
!!Vocal Line Only
**kern
*clefG2
*k[b-e-a-d-]
*A-:
*M2/4
=1-
8e-
=2
4.a-
8g
=3
4.b-
8e-
=4
4cc
4ee-
=5
4ff
4dd-
=6
8cc
4cc
8cc
=7
4b-
4b-
=8
2a-
=9
4a-
8r
8e-
=10
4.a-
8e-
=11
4.b-
8e-
=12
4cc
4ee-
=13
4ff
4dd-
=14
8cc
4cc
8cc
=15
4b-
4b-
=16
2a-
=17
4a-
8r
8b-
=18
8.b-
16b-
8b-
8b-
=19
8.b-
16b-
8b-
8b-
=20
8b-
8b-
8cc
8cc-
=21
4.b-
8b-
=22
8.b-
16b-
8b-
8b-
=23
4b-
8b-
8b-
=24
4b-
8cc
8ddn
=25
8.ee-
16e-
8e-
8e-
=26
4e-
4ee-
=27
4.cc
8b-
=28
4a-
8cc
8cc
=29
4b-
4f
=30
4r
4b-
=31
4a-
8e-
8a-
=32
4g
8f
8g
=33
2a-
=34
4a-
4r
=35
8.e-
16f
8g
16a-
=36
8b-
8b-
8e-
8e-
=37
8.a-
16b-
8cc
8ddn
=38
8ee-
8ee-
8r
8cc
=39
4dd-
4cc
=40
4b-
4a-
=41
2cc
=42
8b-
8r
8r
8e-
=43
4.a-
8e-
=44
4.b-
8e-
=45
4cc
4ee-
=46
4ff
4dd-
=47
8cc
4cc
8cc
=48
4b-
4b-
=49
2a-
=50
4a-
!D.C.
==|!
*-
